X:5
T:Gleanntan Slide
T:Girl in the Dress, The
R:slide
Z:id:hn-slide-5
M:6/8
K:D
dcB|:A2D FED|FAB A2f|g2e f2d|e2d Bcd|
A2D FED|FAB A2f|a2f efe|1 d3 dcB:|2 d3 d2A||
|:d2e f2f|gfe f2f|gfe fed|e2d BAB|
d2e f2f|gfe f2g|a2f efe|1 d3 d2A:|2 d3||
P:variations
dcB|:A2D FED|F2A A2f|gfe fed|e2d B2d|
A2D FED|F2A A2f|a2f efe|1 d3 dcB:|2 d3 dcB||
|:Ade f2f|gfe f2f|gfe fed|e2d Bcd|
Ade f2f|gfe f2g|a2f efe|1 d3 dcB:|2 d3||
<end>
<start>
